neru-classic-light/22x22/panel/firewall-applet-panic.svg

<svg xmlns="http://www.w3.org/2000/svg" width="22" height="22" version="1">
 <defs>
  <style id="current-color-scheme" type="text/css">
   .ColorScheme-Text { color:#5c616c; } .ColorScheme-Highlight { color:#5294e2; }
  </style>
 </defs>
 <g transform="matrix(.046206 0 0 .045375 2.8524 2.9989)">
  <path style="fill:currentColor" class="ColorScheme-Highlight" d="m10.924 3.0117l-6.7697 1.9863c-0.0924 0.032-0.1543 0.4742-0.1543 0.5704 0 2.3721 0.6393 5.1166 1.7539 7.5256 0.9041 1.954 2.53 4.56 5.1411 5.881 0.033 0.016 0.069 0.025 0.105 0.025s0.072-0.009 0.105-0.025c2.611-1.321 4.237-3.927 5.141-5.881 1.115-2.409 1.754-5.1539 1.754-7.5256 0-0.0962-0.062-0.5384-0.154-0.5704l-6.77-1.9863c-0.05-0.0172-0.102-0.0172-0.152 0zm0.031 2.9961c0.028-0.0097 0.06-0.0097 0.088 0l3.869 1.3184c0.053 0.018 0.088 0.065 0.088 0.1191 0 1.3341-0.365 2.8777-1.002 4.2327-0.517 1.099-1.446 2.565-2.937 3.308-0.019 0.01-0.04 0.014-0.061 0.014s-0.042-0.004-0.061-0.014c-1.4913-0.742-2.4204-2.209-2.937-3.308-0.637-1.355-1.002-2.8984-1.002-4.2327 0-0.0541 0.0351-0.1011 0.0879-0.1191l3.8671-1.3184zm-0.955 0.9922v4h2v-4h-2zm0 5v2h2v-2h-2z" transform="matrix(21.642 0 0 22.039 -61.732 -66.091)"/>
 </g>
</svg>

<?xml version="1.0" encoding="UTF-8" standalone="no"?>
<svg
   xmlns:dc="http://purl.org/dc/elements/1.1/"
   xmlns:cc="http://creativecommons.org/ns#"
   xmlns:rdf="http://www.w3.org/1999/02/22-rdf-syntax-ns#"
   xmlns:svg="http://www.w3.org/2000/svg"
   xmlns="http://www.w3.org/2000/svg"
   xmlns:sodipodi="http://sodipodi.sourceforge.net/DTD/sodipodi-0.dtd"
   xmlns:inkscape="http://www.inkscape.org/namespaces/inkscape"
   width="22"
   height="22"
   version="1"
   id="svg9"
   sodipodi:docname="firewall-applet-panic.svg"
   inkscape:version="0.92.4 5da689c313, 2019-01-14">
  <metadata
     id="metadata13">
    <rdf:RDF>
      <cc:Work
         rdf:about="">
        <dc:format>image/svg+xml</dc:format>
        <dc:type
           rdf:resource="http://purl.org/dc/dcmitype/StillImage" />
      </cc:Work>
    </rdf:RDF>
  </metadata>
  <sodipodi:namedview
     pagecolor="#ffffff"
     bordercolor="#666666"
     borderopacity="1"
     objecttolerance="10"
     gridtolerance="10"
     guidetolerance="10"
     inkscape:pageopacity="0"
     inkscape:pageshadow="2"
     inkscape:window-width="640"
     inkscape:window-height="515"
     id="namedview11"
     showgrid="false"
     inkscape:zoom="10.727273"
     inkscape:cx="11"
     inkscape:cy="11"
     inkscape:window-x="0"
     inkscape:window-y="28"
     inkscape:window-maximized="0"
     inkscape:current-layer="g7" />
  <defs
     id="defs3">
    <style
       id="current-color-scheme"
       type="text/css">
   .ColorScheme-Text { color:#1e333d; } .ColorScheme-Highlight { color:#3fb7ff; }
  </style>
  </defs>
  <g
     transform="matrix(0.046206,0,0,0.045375,2.8524,2.9989)"
     id="g7">
    <path
       style="color:#3fb7ff;fill:#3fb7ff;fill-opacity:1"
       class="ColorScheme-Highlight"
       d="M 10.924,3.0117 4.1543,4.998 C 4.0619,5.03 4,5.4722 4,5.5684 c 0,2.3721 0.6393,5.1166 1.7539,7.5256 0.9041,1.954 2.53,4.56 5.1411,5.881 C 10.928,18.991 10.964,19 11,19 c 0.036,0 0.072,-0.009 0.105,-0.025 2.611,-1.321 4.237,-3.927 5.141,-5.881 C 17.361,10.685 18,7.9401 18,5.5684 18,5.4722 17.938,5.03 17.846,4.998 l -6.77,-1.9863 c -0.05,-0.0172 -0.102,-0.0172 -0.152,0 z m 0.031,2.9961 c 0.028,-0.0097 0.06,-0.0097 0.088,0 l 3.869,1.3184 C 14.965,7.3442 15,7.3912 15,7.4453 15,8.7794 14.635,10.323 13.998,11.678 13.481,12.777 12.552,14.243 11.061,14.986 11.042,14.996 11.021,15 11,15 10.979,15 10.958,14.996 10.939,14.986 9.4477,14.244 8.5186,12.777 8.002,11.678 7.365,10.323 7,8.7796 7,7.4453 7,7.3912 7.0351,7.3442 7.0879,7.3262 Z M 10,7 v 4 h 2 V 7 Z m 0,5 v 2 h 2 v -2 z"
       transform="matrix(21.642,0,0,22.039,-61.732,-66.091)"
       id="path5"
       inkscape:connector-curvature="0" />
  </g>
</svg>
